humanity-icon-theme/Humanity-Dark/devices/16/nm-device-wired.svg

<?xml version="1.0" encoding="UTF-8" standalone="no"?>
<!-- Created with Inkscape (http://www.inkscape.org/) -->

<svg
   xmlns:svg="http://www.w3.org/2000/svg"
   xmlns="http://www.w3.org/2000/svg"
   xmlns:xlink="http://www.w3.org/1999/xlink"
   version="1.1"
   width="16"
   height="16"
   id="svg3745">
  <defs
     id="defs3747">
    <linearGradient
       id="linearGradient3595">
      <stop
         id="stop3597"
         style="stop-color:#fee7b1;stop-opacity:1"
         offset="0" />
      <stop
         id="stop3637"
         style="stop-color:#b0935b;stop-opacity:1"
         offset="0.5" />
      <stop
         id="stop3599"
         style="stop-color:#fcebbf;stop-opacity:1"
         offset="1" />
    </linearGradient>
    <linearGradient
       x1="6.6001315"
       y1="3.6546316"
       x2="11.688629"
       y2="9.615634"
       id="linearGradient3635"
       xlink:href="#linearGradient3595"
       gradientUnits="userSpaceOnUse"
       gradientTransform="translate(-0.57018726,0.44289692)" />
    <linearGradient
       x1="9.3258476"
       y1="1.1629168"
       x2="14.637187"
       y2="6.2325544"
       id="linearGradient3639"
       xlink:href="#linearGradient3595"
       gradientUnits="userSpaceOnUse"
       gradientTransform="translate(0.31691,-0.5110708)" />
  </defs>
  <g
     transform="translate(-2,2)"
     id="layer1">
    <path
       d="M 17.442897,-0.77715878 16.721449,-1.4428969 13.278552,2 14,2.6657382 17.442897,-0.77715878 z"
       id="path3767"
       style="fill:none;stroke:#4d4d4d;stroke-width:1;stroke-linejoin:round;stroke-miterlimit:4;stroke-opacity:1;stroke-dasharray:none" />
    <path
       d="m 8.5,1.8161631 c 1.568432,-1.55573698 4.101071,-1.7125759 5.656807,-0.1441439 1.555737,1.568432 1.545445,4.101071 -0.02299,5.656807 -0.05945,0.058968 -0.232154,0.1717633 -0.295186,0.2268841 L 11.31691,4.6560601 8.5,1.8161631 z"
       id="path2819"
       style="fill:url(#linearGradient3639);fill-opacity:1;stroke:#a2824e;stroke-width:1;stroke-linecap:round;stroke-linejoin:round;stroke-miterlimit:4;stroke-opacity:1;stroke-dasharray:none" />
    <path
       d="M 3.6272897,11.889972 4.348738,12.5 7.791635,9.057103 7.0701867,8.447075 3.6272897,11.889972 z"
       id="path3605"
       style="fill:none;stroke:#4d4d4d;stroke-width:1;stroke-linejoin:round;stroke-miterlimit:4;stroke-opacity:1;stroke-dasharray:none" />
    <path
       d="m 12.539751,9.2284766 c -1.568432,1.5557364 -4.3239123,1.6568654 -5.8796483,0.088434 -1.555737,-1.568432 -1.545445,-4.101071 0.02299,-5.656807 0.05945,-0.058968 0.2878639,-0.060343 0.3508959,-0.1154635 L 8.3784148,4.96661 9.7228409,6.38858 12.539751,9.228477 z"
       id="path3607"
       style="fill:url(#linearGradient3635);fill-opacity:1;stroke:#a2824e;stroke-width:1;stroke-linecap:round;stroke-linejoin:round;stroke-miterlimit:4;stroke-opacity:1;stroke-dasharray:none" />
  </g>
</svg>

<?xml version="1.0" encoding="UTF-8" standalone="no"?>
<!-- Created with Inkscape (http://www.inkscape.org/) -->
<svg id="svg3745" xmlns="http://www.w3.org/2000/svg" height="16" width="16" version="1.1" xmlns:xlink="http://www.w3.org/1999/xlink">
 <defs id="defs3747">
  <linearGradient id="linearGradient3595">
   <stop id="stop3597" style="stop-color:#fee7b1" offset="0"/>
   <stop id="stop3637" style="stop-color:#b0935b" offset=".5"/>
   <stop id="stop3599" style="stop-color:#fcebbf" offset="1"/>
  </linearGradient>
  <linearGradient id="linearGradient3635" y2="9.6156" xlink:href="#linearGradient3595" gradientUnits="userSpaceOnUse" x2="11.689" gradientTransform="translate(-.57019 .44290)" y1="3.6546" x1="6.6001"/>
  <linearGradient id="linearGradient3639" y2="6.2326" xlink:href="#linearGradient3595" gradientUnits="userSpaceOnUse" x2="14.637" gradientTransform="translate(.31691 -.51107)" y1="1.1629" x1="9.3258"/>
 </defs>
 <g id="layer1" transform="translate(-2,2)">
  <path id="path3767" style="stroke-linejoin:round;stroke:#4d4d4d;fill:none" d="m17.443-0.77716-0.722-0.66574-3.442 3.4429 0.721 0.6657 3.443-3.4429z"/>
  <path id="path2819" style="stroke-linejoin:round;stroke:#a2824e;stroke-linecap:round;fill:url(#linearGradient3639)" d="m8.5 1.8162c1.5684-1.5557 4.1011-1.7126 5.6568-0.14414 1.5557 1.5684 1.5454 4.1011-0.02299 5.6568-0.05945 0.058968-0.23215 0.17176-0.29519 0.22688l-2.522-2.8997-2.817-2.8399z"/>
  <path id="path3605" style="stroke-linejoin:round;stroke:#4d4d4d;fill:none" d="m3.6273 11.89 0.7214 0.61 3.4429-3.4429-0.7214-0.61-3.4429 3.4429z"/>
  <path id="path3607" style="stroke-linejoin:round;stroke:#a2824e;stroke-linecap:round;fill:url(#linearGradient3635)" d="m12.54 9.2285c-1.5684 1.5557-4.3239 1.6569-5.8796 0.088434-1.5557-1.5684-1.5454-4.1011 0.02299-5.6568 0.05945-0.058968 0.28786-0.060343 0.3509-0.11546l1.3441 1.422 1.3444 1.422 2.8172 2.8399z"/>
 </g>
</svg>
